svgs/solid/list-timeline.svg

<svg xmlns="http://www.w3.org/2000/svg" viewBox="0 0 512 512"><!--! Font Awesome Pro 6.2.0 by @fontawesome - https://fontawesome.com License - https://fontawesome.com/license (Commercial License) Copyright 2022 Fonticons, Inc. --><path d="M112 96c0 26.5-21.5 48-48 48s-48-21.5-48-48s21.5-48 48-48s48 21.5 48 48zM64 304c-26.5 0-48-21.5-48-48s21.5-48 48-48s48 21.5 48 48s-21.5 48-48 48zm0 160c-26.5 0-48-21.5-48-48s21.5-48 48-48s48 21.5 48 48s-21.5 48-48 48zM191.5 54.4c5.5-4.2 12.3-6.4 19.2-6.4H424c13.3 0 24 10.7 24 24v48c0 13.3-10.7 24-24 24H210.7c-6.9 0-13.7-2.2-19.2-6.4l-38.4-28.8c-8.5-6.4-8.5-19.2 0-25.6l38.4-28.8zM153.1 243.2l38.4-28.8c5.5-4.2 12.3-6.4 19.2-6.4H488c13.3 0 24 10.7 24 24v48c0 13.3-10.7 24-24 24H210.7c-6.9 0-13.7-2.2-19.2-6.4l-38.4-28.8c-8.5-6.4-8.5-19.2 0-25.6zm0 160l38.4-28.8c5.5-4.2 12.3-6.4 19.2-6.4H424c13.3 0 24 10.7 24 24v48c0 13.3-10.7 24-24 24H210.7c-6.9 0-13.7-2.2-19.2-6.4l-38.4-28.8c-8.5-6.4-8.5-19.2 0-25.6z"/></svg>

<svg xmlns="http://www.w3.org/2000/svg" viewBox="0 0 512 512"><!--! Font Awesome Pro 6.1.2 by @fontawesome - https://fontawesome.com License - https://fontawesome.com/license (Commercial License) Copyright 2022 Fonticons, Inc. --><path d="M112 96C112 122.5 90.51 144 64 144C37.49 144 16 122.5 16 96C16 69.49 37.49 48 64 48C90.51 48 112 69.49 112 96zM16 256C16 229.5 37.49 208 64 208C90.51 208 112 229.5 112 256C112 282.5 90.51 304 64 304C37.49 304 16 282.5 16 256zM16 416C16 389.5 37.49 368 64 368C90.51 368 112 389.5 112 416C112 442.5 90.51 464 64 464C37.49 464 16 442.5 16 416zM210.7 48H424C437.3 48 448 58.75 448 72V120C448 133.3 437.3 144 424 144H210.7C203.7 144 197 141.8 191.5 137.6L153.1 108.8C144.5 102.4 144.5 89.6 153.1 83.2L191.5 54.4C197 50.25 203.7 48 210.7 48V48zM153.1 243.2L191.5 214.4C197 210.2 203.7 208 210.7 208H488C501.3 208 512 218.7 512 232V280C512 293.3 501.3 304 488 304H210.7C203.7 304 197 301.8 191.5 297.6L153.1 268.8C144.5 262.4 144.5 249.6 153.1 243.2V243.2zM153.1 403.2L191.5 374.4C197 370.2 203.7 368 210.7 368H424C437.3 368 448 378.7 448 392V440C448 453.3 437.3 464 424 464H210.7C203.7 464 197 461.8 191.5 457.6L153.1 428.8C144.5 422.4 144.5 409.6 153.1 403.2z"/></svg>
